**kern
*clefG1
*k[b-e-]
*M4/4
=1-
1bn
=2
1bn
=3
2b-
8cc
16r
4r
16bn
=4
16b-
8a
16g#
16a
16a
2g#
8a
=5
1a
=6
4r
16b-
4r
16b-
8a
4g
=7
8a
2g
4f
16f
16g
=8
8a
16b- 16g 16e-
16b-
(4cc
4r
16dd
16dd
8ee-
=9
4ee-
2.ff
=10
1gg
=11
*-